src/svg/uf022-list-alt.svg

<!-- Generated by IcoMoon.io -->
<svg version="1.1" xmlns="http://www.w3.org/2000/svg" width="32" height="32" viewBox="0 0 32 32">
<path d="M6.857 21.143v1.143c0 0.304-0.268 0.571-0.571 0.571h-1.143c-0.304 0-0.571-0.268-0.571-0.571v-1.143c0-0.304 0.268-0.571 0.571-0.571h1.143c0.304 0 0.571 0.268 0.571 0.571zM6.857 16.571v1.143c0 0.304-0.268 0.571-0.571 0.571h-1.143c-0.304 0-0.571-0.268-0.571-0.571v-1.143c0-0.304 0.268-0.571 0.571-0.571h1.143c0.304 0 0.571 0.268 0.571 0.571zM6.857 12v1.143c0 0.304-0.268 0.571-0.571 0.571h-1.143c-0.304 0-0.571-0.268-0.571-0.571v-1.143c0-0.304 0.268-0.571 0.571-0.571h1.143c0.304 0 0.571 0.268 0.571 0.571zM27.429 21.143v1.143c0 0.304-0.268 0.571-0.571 0.571h-17.143c-0.304 0-0.571-0.268-0.571-0.571v-1.143c0-0.304 0.268-0.571 0.571-0.571h17.143c0.304 0 0.571 0.268 0.571 0.571zM27.429 16.571v1.143c0 0.304-0.268 0.571-0.571 0.571h-17.143c-0.304 0-0.571-0.268-0.571-0.571v-1.143c0-0.304 0.268-0.571 0.571-0.571h17.143c0.304 0 0.571 0.268 0.571 0.571zM27.429 12v1.143c0 0.304-0.268 0.571-0.571 0.571h-17.143c-0.304 0-0.571-0.268-0.571-0.571v-1.143c0-0.304 0.268-0.571 0.571-0.571h17.143c0.304 0 0.571 0.268 0.571 0.571zM29.714 24.571v-14.857c0-0.304-0.268-0.571-0.571-0.571h-26.286c-0.304 0-0.571 0.268-0.571 0.571v14.857c0 0.304 0.268 0.571 0.571 0.571h26.286c0.304 0 0.571-0.268 0.571-0.571zM32 5.143v19.429c0 1.571-1.286 2.857-2.857 2.857h-26.286c-1.571 0-2.857-1.286-2.857-2.857v-19.429c0-1.571 1.286-2.857 2.857-2.857h26.286c1.571 0 2.857 1.286 2.857 2.857z"></path>
</svg>

<svg xmlns="http://www.w3.org/2000/svg" width="32" height="32"><path d="M6.857 21.143v1.143a.587.587 0 0 1-.571.571H5.143a.587.587 0 0 1-.571-.571v-1.143c0-.304.268-.571.571-.571h1.143c.304 0 .571.268.571.571zm0-4.572v1.143a.587.587 0 0 1-.571.571H5.143a.587.587 0 0 1-.571-.571v-1.143c0-.304.268-.571.571-.571h1.143c.304 0 .571.268.571.571zm0-4.571v1.143a.587.587 0 0 1-.571.571H5.143a.587.587 0 0 1-.571-.571V12c0-.304.268-.571.571-.571h1.143c.304 0 .571.268.571.571zm20.572 9.143v1.143a.587.587 0 0 1-.571.571H9.715a.587.587 0 0 1-.571-.571v-1.143c0-.304.268-.571.571-.571h17.143c.304 0 .571.268.571.571zm0-4.572v1.143a.587.587 0 0 1-.571.571H9.715a.587.587 0 0 1-.571-.571v-1.143c0-.304.268-.571.571-.571h17.143c.304 0 .571.268.571.571zm0-4.571v1.143a.587.587 0 0 1-.571.571H9.715a.587.587 0 0 1-.571-.571V12c0-.304.268-.571.571-.571h17.143c.304 0 .571.268.571.571zm2.285 12.571V9.714a.587.587 0 0 0-.571-.571H2.857a.587.587 0 0 0-.571.571v14.857c0 .304.268.571.571.571h26.286a.587.587 0 0 0 .571-.571zM32 5.143v19.429a2.866 2.866 0 0 1-2.857 2.857H2.857A2.866 2.866 0 0 1 0 24.572V5.143a2.866 2.866 0 0 1 2.857-2.857h26.286A2.866 2.866 0 0 1 32 5.143z"/></svg>
